!!!OTL: Benno, Bischof von Meissen
!!!ARE: Europa, Mitteleuropa, Deutschland
!!!SCT: A0388
!!!YEM: Copyright 1995, estate of Helmut Schaffrath.
**kern
*ICvox
*Ivox
!! Mixed meters:  4/2; 6/2
*M6/2
*k[f#c#]
*D:
{2dd
2dd
2dd
=1
1a
2b
2ccn
1b
=2
1a
2r}
{2g
2a
2ccn
=3
1a
2g
2a
2g
2g
=4
1fn
2r}
{2a
2a
2a
=5
*M4/2
1g
2fn
2e
=6
1d
1cn
=7
2r}
{2cn
2fn
2g
=8
2a
2fn
2g
2g
=9
*M6/2
1a
2r}
{2g
2a
2b
=10
*M4/2
2ccn
2a
2b
2ccn
=11
1ccn
2r}
{2a
=12
2ccn
2dd
2ee
2a
=13
2ccn
2dd
1ee
=14
1.dd}
==
!!!AGN: Romanze, Ballade, Lied
!! Breslauer Hs. 16. Jh.
!!!ONB: ESAC (Essen Associative Code) Database: ALTDEU
!!!AMT: irregular
!!!AIN: vox
!!!EED: Helmut Schaffrath
!!!EEV: 1.0
*-
